dist/svg/u1F40C.svg

<?xml version="1.0" encoding="UTF-8"?><svg id="Layer_1" xmlns="http://www.w3.org/2000/svg" viewBox="0 0 40 40"><g><rect x="29.36019" y="8.63177" width="7.99593" height="1.903" transform="translate(7.20342 32.39852) rotate(-57.1273)" style="fill:#ffcac6;"/><rect x="25.91474" y="7.15068" width="7.99601" height="1.90261" transform="translate(15.98848 35.78826) rotate(-78.45596)" style="fill:#ffcac6;"/><circle cx="30.6394" cy="4.7208" r="1.44144" style="fill:#333d4b;"/><circle cx="35.17568" cy="6.62327" r="1.44144" style="fill:#333d4b;"/><path d="M16.68293,36.99436h8.65975c6.02692,0,10.9127-4.88578,10.9127-10.9127V13.76037c0-1.96246-1.59089-3.55334-3.55334-3.55334h-2.62628c-1.44066,0-2.73874,.86987-3.28649,2.20234l-10.10634,24.58499Z" style="fill:#ffcac6;"/><path d="M16.87448,12.45904c-7.04279-.32432-12.85461,5.28968-12.85461,12.26091,0,.14149,.01641,.27865,.02116,.41901h-.01089v8.47718c0,1.86574,1.51248,3.37822,3.37822,3.37822H15.88565v-.02064c.13685,.00454,.27065,.02064,.40858,.02064,6.97101,0,12.58467-5.81113,12.26101-12.85352-.28726-6.25051-5.43028-11.39396-11.68076-11.6818Z" style="fill:#85add7;"/><path d="M11.36858,22.96805c-4.02621-.18541-7.3487,3.024-7.3487,7.00929,0,.08089,.00938,.1593,.01209,.23954h-.00622v4.84622c0,1.0666,.86465,1.93125,1.93125,1.93125h4.84628v-.0118c.07823,.0026,.15473,.0118,.23358,.0118,3.98517,0,7.19438-3.3221,7.00935-7.34808-.16422-3.57328-3.10437-6.51368-6.67763-6.67823Z" style="fill:#7092b5;"/></g><rect width="40" height="40" style="fill:none;"/></svg>

<svg id="Layer_1" data-name="Layer 1" xmlns="http://www.w3.org/2000/svg" viewBox="0 0 40 40"><defs><style>.cls-1{fill:#ffcac6;}.cls-2{fill:#333d4b;}.cls-3{fill:#85add7;}.cls-4{fill:#7092b5;}.cls-5{fill:none;}</style></defs><rect class="cls-1" x="29.36" y="8.632" width="7.996" height="1.903" transform="translate(7.203 32.399) rotate(-57.127)"/><rect class="cls-1" x="25.915" y="7.151" width="7.996" height="1.903" transform="translate(15.988 35.788) rotate(-78.456)"/><circle class="cls-2" cx="30.639" cy="4.721" r="1.441"/><circle class="cls-2" cx="35.176" cy="6.623" r="1.441"/><path class="cls-1" d="M16.683,36.994h8.66A10.911,10.911,0,0,0,36.255,26.082V13.76A3.553,3.553,0,0,0,32.7,10.207H30.076a3.554,3.554,0,0,0-3.287,2.2Z"/><path class="cls-3" d="M16.874,12.459A12.275,12.275,0,0,0,4.02,24.72c0,.141.016.279.021.419H4.03v8.477a3.378,3.378,0,0,0,3.378,3.378h8.478v-.02c.136,0,.27.02.408.02a12.274,12.274,0,0,0,.58-24.535Z"/><path class="cls-4" d="M11.369,22.968A7.017,7.017,0,0,0,4.02,29.977c0,.081.009.16.012.24H4.026v4.846a1.93,1.93,0,0,0,1.931,1.931H10.8v-.011c.079,0,.155.011.234.011a7.017,7.017,0,0,0,.332-14.026Z"/><rect class="cls-5" width="40" height="40"/></svg>
